X:8314
T:Julia Delaney
R:Reel
D:Paddy Glackin: Ceol ar an bhFidil le Paddy Glackin.
D:Bothy Band 1974.
Z:id:hn-reel-78
M:4/4
L:1/8
Q:1/4=200
K:DDorian
dcAG F2DF |E2CE FEFG |dcAG FDFG|Addc defe|
dcAG ~F3G|~E3G ~F3A|dcAG FDFG|Addc d2de:|
|:fede fagf|ecgc acgc|fede fagf|fedc Adde|
fede fagf|ecgc acgc|fedf edce|Addc d2de:|
